X:565
T:The Band o' Shearers
Z:Jack Campin, http://www.campin.me.uk/
F:Jack Campin's Nine-Note Tunebook
% last edit 03-02-2013
M:4/4
L:1/8
Q:1/4=100
K:Ddor %Transposed from EDOR
D|A3 A D3 D|AGAB c3
A|G2G2 C2C2|EDEG A3
A|D3 E F2G2|A2d2 c3
G|A2c2 AGFE|D4   D3|]
 
